X:1
T:I Live Not Where I Love
M:4/4
L:1/4
K:F
 c| c3/2 A/2 B A| c F/2F/2 E F| G/2A/2 Bc/2-d/2 c|c/2-B/2 A| G2| c c/2A/2 B A|\
 c F/2F/2 E F|G/2-A/2 Bc/2-d/2 c|c/2-B/2 G F2| B A B c| d f e c| f3/2 c/2 c A|\
 B c G3/2 c/2| c3/2 A/2 B A| c F E F|G/2-A/2 Bc/2-d/2 c|c/2-B/2 G F2|\
